symbols/web/monitor_heart/materialsymbolssharp/monitor_heart_wght500grad200fill1_20px.svg

<svg xmlns="http://www.w3.org/2000/svg" height="20" width="20"><path d="M1.042 17.271v-6.167h4.937l1.354 2.729q.146.292.417.448.271.157.583.157.334 0 .594-.157.261-.156.406-.448l2.334-4.687.666 1.354q.146.292.417.448.271.156.583.156h5.625v6.167Zm7.291-6.417L7.667 9.5q-.125-.292-.407-.448-.281-.156-.593-.156H1.042V2.729h17.916v6.167h-4.937l-1.354-2.729q-.125-.292-.407-.448-.281-.157-.593-.157-.292 0-.584.157-.291.156-.416.448Z"/></svg>

<svg xmlns="http://www.w3.org/2000/svg" height="20" width="20"><path d="M1.042 17.271V11.104H5.979L7.333 13.833Q7.479 14.125 7.75 14.281Q8.021 14.438 8.333 14.438Q8.667 14.438 8.927 14.281Q9.188 14.125 9.333 13.833L11.667 9.146L12.333 10.5Q12.479 10.792 12.75 10.948Q13.021 11.104 13.333 11.104H18.958V17.271ZM8.333 10.854 7.667 9.5Q7.542 9.208 7.26 9.052Q6.979 8.896 6.667 8.896H1.042V2.729H18.958V8.896H14.021L12.667 6.167Q12.542 5.875 12.26 5.719Q11.979 5.562 11.667 5.562Q11.375 5.562 11.083 5.719Q10.792 5.875 10.667 6.167Z"/></svg>
